!!!OTL: Bravo, c' est bon! (276), S. 588
!!!id: T0466
**kern
*clefG2
*k[]
*G:
{16g
=1
16g
4g
8a
4b
8b
=2
8b
8a
8a
4g}
8r
=3
{4b
8cc
4dd
8dd
=4
8dd
8cc
8cc
8ee
8dd
8dd}
=5
{4b
8cc
4dd
8dd
=6
8dd
8cc
8cc
4b}
=7
{8g
=8
8ee
8ee
16ee
16ee
8ee
8ee
8ee
=9
8ee
8dd
8dd
4dd}
=10
{8dd
=11
8cc
8cc
16cc
16cc
8ee
8dd
8cc
=12
8cc
8b
8b
4b}
8r
=13
{4b
8cc
4dd
8dd
=14
8dd
8cc
8cc
8ee
8dd
8dd}
=15
{4b
8cc
4dd
8dd
=16
8dd
8cc
8cc
8b}
4r
==
*-
!!!minrhy: 16
!!!meters: 6/8 ]  ZZ[7
!!!cut: Bravo, c' est bon! (276), S. 588
!!!reg: Luxemburg
!!!trd: Singendes Volk, Esch-Alzette, 1937 posth.
!!!rhy1:   X__X_X__X_  X_X_X_X__0   (x2)
!!!rhy2: X__X_X__X_  X_X_X_X_X_X_
!!!key: T0466  16  G 6/8 ]  ZZ[7
!!!mod: SECHSTONSKALA DUR ?]  AMBITUS[6
!!!kad: 1535353
!!!akz: 1331_3556_3553_6665_4643_3556_3553_
!!!fot: 'a__as"as_b__c__as"as_
!!!for: 'a__aw_av_b__bv_aw_av_
!!!fok: '^__/__^__/__\__/__^__
!! PHRAS[VORWIEGEND VOLLTAKTIG]
!!!fkt: ???
!!!bem: Junglinster, hhh Vater des Verfassers, um 1890
!! THILL; Mathias
!! PR[45] 2K[0] 2G[5] 3K[9] 3G[7] 4A[5] 4Ü[0] 5A[0] 6K[0] 6G[0]
!! 7K[0] 7G[0] 8A[0] MEHR[0] SI[27] ABS[56] SR[5] SP[21]
!! ST[16] 2k[2] 2g[13] 3k[9] 3g[4] 4d[2] 4ü[0] 5d[0] 6k[0] 6g[0]
!! 7k[0] 7g[0] 8d[0] mehr[0] si[29] dm[-2] sr[14] sp[14]
!! 1F[37] 2F[63] 3F[0] 4F[0] LF[0] 2P[0] 3P[0] 4P[0] TRI[0] DF[2] AB[59]
!! TF[0] U3K[0] U3[0] U4[0] U4Ü[0] U5[7] U6K[0] U6[0] U7K[0] U7[0]
!! N1[18] N2K[0] N2[11] N3K[0] N3[37] N4[5] N4Ü[0] N5[19] N6K[0] N6[4]
!!!n7k: 0] N7[0] O1[0] O2K[0] O2[0] O3K[0] O3[0] HÖ[0
